public/images/tsb-logo.svg

<?xml version="1.0" encoding="UTF-8"?>
<svg width="489px" height="149px" viewBox="0 0 489 149" version="1.1" xmlns="http://www.w3.org/2000/svg" xmlns:xlink="http://www.w3.org/1999/xlink">
    <!-- Generator: Sketch 55 (78076) - https://sketchapp.com -->
    <title>Group 21</title>
    <desc>Created with Sketch.</desc>
    <defs>
        <polygon id="path-1" points="7.3995 2.85152381 285.54 2.85152381 285.54 131.258124 7.3995 131.258124"></polygon>
        <polygon id="path-3" points="0 5.83847619 51.933 5.83847619 51.933 52.6666667 0 52.6666667"></polygon>
        <polygon id="path-5" points="0 0.247533333 165.7035 0.247533333 165.7035 116.573152 0 116.573152"></polygon>
        <polygon id="path-7" points="0 6.19886667 165.7035 6.19886667 165.7035 86.4779143 0 86.4779143"></polygon>
        <polygon id="path-9" points="0 0.247533333 144.501 0.247533333 144.501 97.6056286 0 97.6056286"></polygon>
        <polygon id="path-11" points="0 6.19886667 102.8835 6.19886667 102.8835 67.5103905 0 67.5103905"></polygon>
    </defs>
    <g id="Page-1" stroke="none" stroke-width="1" fill="none" fill-rule="evenodd">
        <g id="tsb-logo" transform="translate(-253.000000, -429.000000)">
            <g id="Group-21" transform="translate(253.000000, 422.000000)">
                <g id="Group-3" transform="translate(202.500000, 4.676048)">
                    <mask id="mask-2" fill="white">
                        <use xlink:href="#path-1"></use>
                    </mask>
                    <g id="Clip-2"></g>
                    <path d="M238.212,25.3228857 C237.447,25.5410762 236.5845,25.6087905 235.647,25.6087905 C231.5145,25.6087905 230.082,23.848219 230.082,16.8134571 C230.082,9.87650476 231.552,8.00307619 236.3745,8.00307619 C238.3845,8.00307619 240.5745,8.43945714 242.2695,9.12412381 L242.832,4.08317143 C240.972,3.32326667 238.3845,2.84926667 236.052,2.84926667 C227.742,2.84926667 224.1495,7.21307619 224.1495,16.8811714 C224.1495,26.3310762 227.352,30.8754571 235.8045,30.8754571 C238.5345,30.8754571 241.4445,30.2660286 243.2745,29.3932667 L243.2745,15.7225048 L238.212,15.7225048 L238.212,25.3228857 Z M216.462,16.8435524 C216.462,27.0533619 213.3045,30.8378381 205.6395,30.8378381 C198.1245,30.8378381 194.817,26.8351714 194.817,16.8435524 C194.817,6.85193333 197.9895,2.88688571 205.6395,2.88688571 C213.3045,2.88688571 216.462,6.85193333 216.462,16.8435524 L216.462,16.8435524 Z M210.537,16.8435524 C210.537,9.6658381 209.307,8.14602857 205.6395,8.14602857 C202.0095,8.14602857 200.7495,9.70345714 200.7495,16.8435524 C200.7495,24.0212667 202.0095,25.6163143 205.6695,25.6163143 C209.307,25.6163143 210.537,23.9836476 210.537,16.8435524 L210.537,16.8435524 Z M69.732,30.8378381 C71.862,30.8378381 74.202,30.2961238 75.7845,29.5061238 L75.2145,24.7059333 C73.8795,25.3228857 72.3345,25.7216476 70.572,25.7216476 C66.147,25.7216476 64.602,23.7353619 64.602,16.662981 C64.602,10.026981 66.072,8.10840952 70.467,8.10840952 C72.222,8.10840952 73.9095,8.47707619 75.132,8.94355238 L75.717,3.92517143 C74.337,3.32326667 71.9745,2.84926667 70.0695,2.84926667 C62.187,2.84926667 58.677,7.38612381 58.677,16.662981 C58.677,26.5191714 62.2245,30.8378381 69.732,30.8378381 L69.732,30.8378381 Z M252.867,30.3638381 L258.6495,30.3638381 L258.6495,3.32326667 L255.762,3.32326667 L252.867,3.32326667 L252.867,30.3638381 Z M153.417,30.8378381 C145.902,30.8378381 142.6095,26.8351714 142.6095,16.8435524 C142.6095,6.85193333 145.7745,2.88688571 153.417,2.88688571 C161.082,2.88688571 164.247,6.85193333 164.247,16.8435524 C164.247,27.0533619 161.082,30.8378381 153.417,30.8378381 L153.417,30.8378381 Z M158.322,16.8435524 C158.322,9.6658381 157.0995,8.14602857 153.417,8.14602857 C149.7945,8.14602857 148.5345,9.70345714 148.5345,16.8435524 C148.5345,24.0212667 149.7945,25.6087905 153.4545,25.6087905 C157.0995,25.6087905 158.322,23.9836476 158.322,16.8435524 L158.322,16.8435524 Z M50.997,25.2476476 L39.882,25.2476476 L39.882,18.8298381 L48.762,18.8298381 L48.762,14.0747905 L39.882,14.0747905 L39.882,8.50717143 L50.457,8.50717143 L50.3445,3.32326667 L34.2495,3.32326667 L34.2495,30.3638381 L50.8545,30.3638381 L50.997,25.2476476 Z M89.892,19.1533619 L98.2395,19.1533619 L98.2395,30.3638381 L103.8795,30.3638381 L103.8795,3.32326667 L98.2395,3.32326667 L98.2395,13.8866952 L89.892,13.8866952 L89.892,3.32326667 L84.252,3.32326667 L84.252,30.3638381 L89.892,30.3638381 L89.892,19.1533619 Z M188.9295,25.1046952 L178.9995,25.1046952 L178.9995,3.31574286 L173.337,3.31574286 L173.337,30.3638381 L188.7795,30.3638381 L188.9295,25.1046952 Z M274.437,25.2476476 L274.437,18.8298381 L283.317,18.8298381 L283.317,14.0747905 L274.437,14.0747905 L274.437,8.50717143 L284.997,8.50717143 L284.892,3.32326667 L268.782,3.32326667 L268.782,30.3638381 L285.402,30.3638381 L285.5445,25.2476476 L274.437,25.2476476 Z M13.9545,30.3638381 L19.6545,30.3638381 L19.6545,8.62002857 L26.1945,8.62002857 L26.1045,3.32326667 L7.5345,3.32326667 L7.3995,8.62002857 L13.9545,8.62002857 L13.9545,30.3638381 Z M133.767,30.3638381 L133.767,3.32326667 L128.817,3.32326667 L128.817,16.8059333 L128.8845,19.6875524 L128.817,19.7251714 L118.8195,3.32326667 L113.967,3.32326667 L113.967,30.3638381 L118.9545,30.3638381 L118.9545,16.1588857 L118.9245,13.2396476 L118.992,13.2020286 L120.4995,15.7225048 L129.747,30.3638381 L133.767,30.3638381 Z M116.2845,54.5152667 L97.7445,54.5152667 L97.5945,59.8120286 L104.142,59.8120286 L104.142,81.5633619 L109.857,81.5633619 L109.857,59.8120286 L116.4045,59.8120286 L116.2845,54.5152667 Z M143.427,72.3767905 L143.427,54.5152667 L137.787,54.5152667 L137.787,72.3015524 C137.787,75.438981 136.557,76.7330762 133.542,76.7330762 C130.5195,76.7330762 129.2595,75.4013619 129.2595,72.3015524 L129.2595,54.5152667 L123.5895,54.5152667 L123.5895,72.3767905 C123.5895,78.8623143 126.9945,82.0298381 133.542,82.0298381 C140.0895,82.0298381 143.427,78.8623143 143.427,72.3767905 L143.427,72.3767905 Z M89.907,65.8461238 L81.102,65.8461238 L81.102,59.8120286 L91.6395,59.8120286 L91.557,54.5152667 L75.462,54.5152667 L75.462,81.5633619 L81.102,81.5633619 L81.102,70.856981 L89.8395,70.856981 L89.907,65.8461238 Z M167.952,68.0054571 L168.027,70.8870762 L167.952,70.9246952 L157.9545,54.5152667 L153.0945,54.5152667 L153.0945,81.5633619 L158.0895,81.5633619 L158.0895,67.3584095 L158.052,64.4316476 L158.127,64.4015524 L159.642,66.9220286 L168.8895,81.5633619 L172.9095,81.5633619 L172.9095,54.5152667 L167.952,54.5152667 L167.952,68.0054571 Z M17.262,76.9512667 C14.847,76.9512667 12.657,76.2666 10.5645,75.1530762 L9.8145,80.1263143 C11.8995,81.3526952 14.562,82.0298381 17.367,82.0298381 C23.1945,82.0298381 26.562,78.8623143 26.562,73.5580286 C26.562,64.6874571 15.3495,66.274981 15.3495,61.9487905 C15.3495,60.428981 16.212,59.2778381 19.272,59.2778381 C21.1095,59.2778381 23.052,59.6314571 25.062,60.3161238 L25.707,55.4256476 C23.8395,54.5528857 21.3645,54.0864095 18.912,54.0864095 C12.687,54.0864095 9.9195,57.6150762 9.9195,62.1970762 C9.9195,71.0375524 21.147,69.4876476 21.147,73.9266952 C21.147,75.9054571 19.947,76.9512667 17.262,76.9512667 L17.262,76.9512667 Z M39.252,81.5633619 L44.9595,81.5633619 L44.9595,59.8120286 L51.507,59.8120286 L51.4095,54.5152667 L32.847,54.5152667 L32.712,59.8120286 L39.252,59.8120286 L39.252,81.5633619 Z M65.1645,54.5152667 L62.277,54.5152667 L59.3745,54.5152667 L59.3745,81.5633619 L65.1645,81.5633619 L65.1645,54.5152667 Z M196.002,76.5224095 C195.2445,76.7406 194.382,76.8083143 193.4445,76.8083143 C189.3045,76.8083143 187.872,75.040219 187.872,68.0054571 C187.872,61.0760286 189.342,59.2026 194.172,59.2026 C196.182,59.2026 198.372,59.6314571 200.0595,60.3161238 L200.6295,55.2751714 C198.762,54.5152667 196.182,54.0487905 193.842,54.0487905 C185.5395,54.0487905 181.947,58.4126 181.947,68.0806952 C181.947,77.5306 185.1345,82.0674571 193.5945,82.0674571 C196.332,82.0674571 199.2345,81.4505048 201.0645,80.5927905 L201.0645,66.9220286 L196.002,66.9220286 L196.002,76.5224095 Z M145.242,104.210029 L145.242,121.838314 L145.3095,124.727457 L145.242,124.765076 L143.7645,122.2446 L133.077,104.210029 L129.9645,104.210029 L129.9645,131.258124 L133.017,131.258124 L133.017,113.0806 L132.9795,110.161362 L133.0545,110.123743 L134.4945,112.651743 L145.7445,131.258124 L148.2195,131.258124 L148.2195,104.210029 L145.242,104.210029 Z M114.5295,131.258124 L118.0095,131.258124 L118.0095,104.210029 L116.262,104.210029 L114.5295,104.210029 L114.5295,131.258124 Z M23.6145,116.940314 C26.457,117.655076 28.137,119.7166 28.137,123.576314 C28.137,128.444219 25.8495,131.258124 20.0895,131.258124 L10.947,131.258124 L10.947,104.210029 L19.767,104.210029 C24.687,104.210029 27.1695,106.406981 27.1695,110.921267 C27.1695,114.231743 25.737,116.105171 23.6145,116.865076 L23.6145,116.940314 Z M14.262,115.856886 L19.8045,115.856886 C22.6095,115.856886 23.8695,114.487552 23.8695,111.523171 C23.8695,108.385743 22.5795,107.302314 19.6545,107.302314 L14.262,107.302314 L14.262,115.856886 Z M20.1345,128.233552 C23.0745,128.233552 24.7245,126.999648 24.7245,123.320505 C24.7245,120.002505 23.2245,118.633171 19.9695,118.633171 L14.262,118.633171 L14.262,128.233552 L20.1345,128.233552 Z M75.2145,119.02441 L81.6495,131.258124 L77.622,131.258124 L72.0795,119.671457 L67.3695,119.671457 L67.3695,131.258124 L63.957,131.258124 L63.957,104.210029 L72.0495,104.210029 C77.472,104.210029 80.022,106.549933 80.022,111.854219 C80.022,116.105171 78.3345,118.4526 75.2145,119.02441 L75.2145,119.02441 Z M76.5045,111.989648 C76.5045,108.453457 75.1395,107.272219 72.0795,107.272219 L67.3695,107.272219 L67.3695,116.865076 L71.9445,116.865076 C75.102,116.865076 76.5045,115.638695 76.5045,111.989648 L76.5045,111.989648 Z M38.5545,104.210029 L38.5545,131.258124 L53.982,131.258124 L54.0795,128.052981 L41.9745,128.052981 L41.9745,118.663267 L51.8445,118.663267 L51.8445,115.676314 L41.9745,115.676314 L41.9745,107.45279 L53.5095,107.45279 L53.4345,104.210029 L38.5545,104.210029 Z M94.212,104.210029 L94.212,127.977743 L105.3495,127.977743 L105.2445,131.258124 L90.7695,131.258124 L90.7695,104.210029 L94.212,104.210029 Z" id="Fill-1" fill="#000000" mask="url(#mask-2)"></path>
                </g>
                <g id="Group-6" transform="translate(0.000000, 102.485571)">
                    <mask id="mask-4" fill="white">
                        <use xlink:href="#path-3"></use>
                    </mask>
                    <g id="Clip-5"></g>
                    <polygon id="Fill-4" fill="#E40134" mask="url(#mask-4)" points="15.438 52.6666667 -0.0045 6.28238095 0.7305 5.83847619 51.933 14.4231429 51.528 14.8444762"></polygon>
                </g>
                <polygon id="Fill-7" fill="#71CBF4" points="35.748 33.8706857 182.673 98.8237333 165.708 136.292305 0.003 108.77021"></polygon>
                <g id="Group-11" transform="translate(0.000000, 19.723667)">
                    <mask id="mask-6" fill="white">
                        <use xlink:href="#path-5"></use>
                    </mask>
                    <g id="Clip-10"></g>
                    <polygon id="Fill-9" fill="#63B9E9" mask="url(#mask-6)" points="-0.0015 89.0435333 144.501 0.247533333 165.7035 116.573152"></polygon>
                </g>
                <g id="Group-14" transform="translate(0.000000, 49.818905)">
                    <mask id="mask-8" fill="white">
                        <use xlink:href="#path-7"></use>
                    </mask>
                    <g id="Clip-13"></g>
                    <polygon id="Fill-12" fill="#3192D0" mask="url(#mask-8)" points="-0.0015 58.9482952 85.8435 6.19886667 156.786 37.5581048 165.7035 86.4779143"></polygon>
                </g>
                <g id="Group-17" transform="translate(0.000000, 19.723667)">
                    <mask id="mask-10" fill="white">
                        <use xlink:href="#path-9"></use>
                    </mask>
                    <g id="Clip-16"></g>
                    <polygon id="Fill-15" fill="#3A5BA7" mask="url(#mask-10)" points="-0.0015 89.0435333 144.501 0.247533333 51.531 97.6056286"></polygon>
                </g>
                <g id="Group-20" transform="translate(0.000000, 49.818905)">
                    <mask id="mask-12" fill="white">
                        <use xlink:href="#path-11"></use>
                    </mask>
                    <g id="Clip-19"></g>
                    <polygon id="Fill-18" fill="#213A8F" mask="url(#mask-12)" points="-0.0015 58.9482952 85.8435 6.19886667 102.8835 13.7302 51.531 67.5103905"></polygon>
                </g>
            </g>
        </g>
    </g>
</svg>

<svg width="489" height="149" xmlns="http://www.w3.org/2000/svg" xmlns:xlink="http://www.w3.org/1999/xlink"><defs><path id="a" d="M7.4 2.852h278.14v128.406H7.4z"/><path id="c" d="M0 5.838h51.933v46.829H0z"/><path id="e" d="M0 .248h165.703v116.325H0z"/><path id="g" d="M0 6.199h165.703v80.279H0z"/><path id="i" d="M0 .248h144.501v97.358H0z"/><path id="k" d="M0 6.199h102.883V67.51H0z"/></defs><g fill="none" fill-rule="evenodd"><g transform="translate(202.5 -2.324)"><mask id="b" fill="#fff"><use xlink:href="#a"/></mask><path d="M238.212 25.323c-.765.218-1.627.286-2.565.286-4.132 0-5.565-1.76-5.565-8.796 0-6.936 1.47-8.81 6.293-8.81 2.01 0 4.2.436 5.894 1.121l.563-5.04c-1.86-.76-4.447-1.235-6.78-1.235-8.31 0-11.903 4.364-11.903 14.032 0 9.45 3.203 13.994 11.655 13.994 2.73 0 5.64-.609 7.47-1.482v-13.67h-5.062v9.6Zm-21.75-8.48c0 10.21-3.157 13.995-10.822 13.995-7.515 0-10.823-4.003-10.823-13.994 0-9.992 3.172-13.957 10.822-13.957 7.665 0 10.823 3.965 10.823 13.957Zm-5.925 0c0-7.177-1.23-8.697-4.898-8.697-3.63 0-4.89 1.557-4.89 8.698 0 7.177 1.26 8.772 4.92 8.772 3.638 0 4.868-1.632 4.868-8.772ZM69.732 30.839c2.13 0 4.47-.542 6.052-1.332l-.57-4.8a10.955 10.955 0 0 1-4.642 1.016c-4.425 0-5.97-1.987-5.97-9.059 0-6.636 1.47-8.555 5.865-8.555 1.755 0 3.442.37 4.665.836l.585-5.019c-1.38-.602-3.742-1.076-5.647-1.076-7.883 0-11.393 4.537-11.393 13.814 0 9.856 3.547 14.175 11.055 14.175Zm183.135-.474h5.782V3.324h-5.782v27.04Zm-99.45.474c-7.515 0-10.808-4.003-10.808-13.994 0-9.992 3.165-13.957 10.808-13.957 7.665 0 10.83 3.965 10.83 13.957 0 10.21-3.165 13.994-10.83 13.994Zm4.905-13.994c0-7.178-1.222-8.698-4.905-8.698-3.623 0-4.882 1.557-4.882 8.698 0 7.177 1.26 8.765 4.92 8.765 3.644 0 4.867-1.625 4.867-8.765ZM50.997 25.248H39.882V18.83h8.88v-4.755h-8.88V8.507h10.575l-.113-5.184H34.25v27.04h16.605l.143-5.115Zm38.895-6.095h8.348v11.21h5.64V3.324h-5.64v10.564h-8.348V3.323h-5.64v27.04h5.64v-11.21Zm99.037 5.952H179V3.315h-5.662v27.049h15.443l.15-5.26Zm85.508.143V18.83h8.88v-4.755h-8.88V8.507h10.56l-.105-5.184h-16.11v27.04h16.62l.143-5.115h-11.108ZM13.954 30.364h5.7V8.62h6.54l-.09-5.297H7.535L7.4 8.62h6.555v21.744Zm119.813 0V3.324h-4.95v13.482l.067 2.882-.067.037-9.998-16.402h-4.852v27.04h4.987V16.16l-.03-2.92.068-.037 1.507 2.52 9.248 14.642h4.02Zm-17.483 24.151h-18.54l-.15 5.297h6.548v21.751h5.715V59.812h6.547l-.12-5.297Zm27.143 17.862V54.515h-5.64v17.787c0 3.137-1.23 4.431-4.245 4.431-3.023 0-4.282-1.332-4.282-4.431V54.515h-5.67v17.862c0 6.485 3.404 9.653 9.952 9.653 6.547 0 9.885-3.168 9.885-9.653Zm-53.52-6.53h-8.805v-6.035h10.537l-.082-5.297H75.462v27.048h5.64V70.857h8.737l.068-5.01Zm78.045 2.158.075 2.882-.075.038-9.998-16.41h-4.86v27.048h4.995V67.358l-.037-2.926.075-.03 1.515 2.52 9.248 14.641h4.02V54.515h-4.958v13.49Zm-150.69 8.946c-2.415 0-4.605-.684-6.697-1.798l-.75 4.973c2.085 1.227 4.747 1.904 7.552 1.904 5.828 0 9.195-3.168 9.195-8.472 0-8.87-11.213-7.283-11.213-11.61 0-1.519.863-2.67 3.923-2.67 1.838 0 3.78.353 5.79 1.038l.645-4.89c-1.867-.873-4.343-1.34-6.795-1.34-6.225 0-8.992 3.53-8.992 8.111 0 8.84 11.227 7.29 11.227 11.73 0 1.978-1.2 3.024-3.885 3.024Zm21.99 4.612h5.707V59.812h6.548l-.097-5.297H32.847l-.135 5.297h6.54v21.751Zm25.913-27.048h-5.791v27.048h5.79V54.515Zm130.837 22.007c-.758.219-1.62.286-2.558.286-4.14 0-5.572-1.768-5.572-8.803 0-6.929 1.47-8.802 6.3-8.802 2.01 0 4.2.428 5.888 1.113l.57-5.04c-1.868-.76-4.448-1.227-6.788-1.227-8.303 0-11.895 4.364-11.895 14.032 0 9.45 3.188 13.986 11.648 13.986 2.737 0 5.64-.616 7.47-1.474V66.922h-5.063v9.6Zm-50.76 27.688v17.628l.068 2.89-.068.037-1.477-2.52-10.688-18.035h-3.113v27.048h3.053v-18.177l-.037-2.92.075-.037 1.44 2.528 11.25 18.606h2.475V104.21h-2.978Zm-30.712 27.048h3.48V104.21h-3.481v27.048ZM23.614 116.94c2.842.715 4.522 2.777 4.522 6.636 0 4.868-2.288 7.682-8.047 7.682h-9.143V104.21h8.82c4.92 0 7.402 2.197 7.402 6.711 0 3.31-1.432 5.184-3.555 5.944v.075Zm-9.353-1.083h5.543c2.805 0 4.064-1.37 4.064-4.334 0-3.137-1.29-4.22-4.215-4.22h-5.392v8.554Zm5.872 12.377c2.94 0 4.59-1.234 4.59-4.913 0-3.318-1.5-4.688-4.755-4.688h-5.707v9.6h5.872Zm55.08-9.21 6.436 12.234h-4.028l-5.543-11.587h-4.71v11.587h-3.412V104.21h8.092c5.423 0 7.973 2.34 7.973 7.644 0 4.251-1.688 6.599-4.808 7.17Zm1.29-7.034c0-3.537-1.365-4.718-4.425-4.718h-4.71v9.593h4.576c3.157 0 4.56-1.226 4.56-4.875Zm-37.95-7.78v27.048h15.428l.098-3.205H41.975v-9.39h9.87v-2.987h-9.87v-8.223H53.51l-.075-3.243h-14.88Zm55.658 0v23.768h11.138l-.105 3.28H90.769V104.21h3.443Z" fill="#000" mask="url(#b)"/></g><g transform="translate(0 95.486)"><mask id="d" fill="#fff"><use xlink:href="#c"/></mask><path fill="#E40134" mask="url(#d)" d="M15.438 52.667-.005 6.282l.736-.444 51.202 8.585-.405.421z"/></g><path fill="#71CBF4" d="m35.748 26.87 146.925 64.954-16.965 37.468L.003 101.77z"/><g transform="translate(0 12.724)"><mask id="f" fill="#fff"><use xlink:href="#e"/></mask><path fill="#63B9E9" mask="url(#f)" d="M-.002 89.044 144.501.248l21.202 116.325z"/></g><g transform="translate(0 42.819)"><mask id="h" fill="#fff"><use xlink:href="#g"/></mask><path fill="#3192D0" mask="url(#h)" d="m-.002 58.948 85.846-52.75 70.942 31.36 8.917 48.92z"/></g><g transform="translate(0 12.724)"><mask id="j" fill="#fff"><use xlink:href="#i"/></mask><path fill="#3A5BA7" mask="url(#j)" d="M-.002 89.044 144.501.248l-92.97 97.358z"/></g><g transform="translate(0 42.819)"><mask id="l" fill="#fff"><use xlink:href="#k"/></mask><path fill="#213A8F" mask="url(#l)" d="m-.002 58.948 85.846-52.75 17.04 7.532L51.53 67.51z"/></g></g></svg>
